public/build/img/sistema/panelproductos-bl.svg

<svg width="40" height="30" viewBox="0 0 40 30" fill="none" xmlns="http://www.w3.org/2000/svg">
<path d="M2.94099 0.577472C3.13696 0.178993 3.5681 -0.0496429 4.00577 0.00914915L19.9972 2.00808L35.9887 0.00914915C36.4263 -0.0431105 36.8575 0.185525 37.0534 0.577472L39.7775 6.02554C40.3654 7.19485 39.7383 8.61239 38.4841 8.97167L27.81 12.0223C26.902 12.2836 25.9287 11.8982 25.4453 11.0882L19.9972 2.00808L14.5492 11.0882C14.0658 11.8982 13.0924 12.2836 12.1844 12.0223L1.51691 8.97167C0.256148 8.61239 -0.364435 7.19485 0.223486 6.02554L2.94099 0.577472ZM20.0691 6.18885L23.6554 12.1595C24.6287 13.7796 26.5689 14.5504 28.3914 14.0278L36.7203 11.65V22.5592C36.7203 23.9963 35.7404 25.2505 34.3425 25.6033L21.0097 28.9349C20.3434 29.1047 19.6445 29.1047 18.9847 28.9349L5.65195 25.6033C4.25401 25.244 3.27414 23.9898 3.27414 22.5526V11.6434L11.6095 14.0278C13.4256 14.5504 15.3722 13.7796 16.3456 12.1595L19.9254 6.18885H20.0691Z" fill="white"/>
</svg>

<svg width="40" height="30" fill="none" xmlns="http://www.w3.org/2000/svg"><path d="M2.941.577A1.036 1.036 0 014.006.01l15.991 2 15.992-2c.437-.052.869.177 1.064.568l2.725 5.449a2.092 2.092 0 01-1.294 2.946l-10.674 3.05a2.086 2.086 0 01-2.365-.934l-5.448-9.08-5.448 9.08a2.086 2.086 0 01-2.365.934L1.517 8.972A2.088 2.088 0 01.223 6.026L2.941.577zM20.069 6.19l3.586 5.97a4.18 4.18 0 004.736 1.869l8.33-2.378v10.91c0 1.436-.98 2.69-2.378 3.043L21.01 28.935c-.667.17-1.366.17-2.025 0L5.652 25.603a3.156 3.156 0 01-2.378-3.05v-10.91l8.336 2.385a4.184 4.184 0 004.736-1.869l3.58-5.97h.143z" fill="#fff"/></svg>
